austria/municipalities/62226.svg

<svg xmlns="http://www.w3.org/2000/svg" width="827" height="944" style="shape-rendering:geometricPrecision;text-rendering:geometricPrecision;image-rendering:optimizeQuality;fill-rule:evenodd;clip-rule:evenodd"><path style="opacity:1" fill="#fefefe" d="M-.5-.5h827v944H-.5V-.5z"/><path style="opacity:1" fill="#070505" d="M17.5 15.5c262.663 1.993 525.329 2.993 788 3a54539.261 54539.261 0 0 1 .5 526c-9.405 137.799-71.572 244.299-186.5 319.5-95.95 56.934-198.617 73.1-308 48.5C181.439 876.058 89.94 795.725 37 671.5a536.145 536.145 0 0 1-19-66 529.477 529.477 0 0 0-5-39 1856.826 1856.826 0 0 0-1.5-48.5A44111.47 44111.47 0 0 1 14 17.5a19.606 19.606 0 0 0 3.5-2z"/><path style="opacity:1" fill="#2c4f24" d="M36.5 36.5c249.007.289 498.007 1.622 747 4 .792 129.86 1.792 259.693 3 389.5a56.738 56.738 0 0 0-1.5 6.5c-31.271-27.619-67.771-38.453-109.5-32.5a172.55 172.55 0 0 0-33 9 1401.553 1401.553 0 0 1-45 22c-42.769 14.028-82.436 8.028-119-18-33.055-17.37-67.722-21.37-104-12a161.065 161.065 0 0 0-19 7c-58.635 38.455-116.635 37.455-174-3-53.016-21.702-101.682-14.535-146 21.5a16271.22 16271.22 0 0 1 1-394z"/><path style="opacity:1" fill="#0d0d0c" d="M178.5 58.5c25.317 1.139 45.817 11.472 61.5 31a103.51 103.51 0 0 1 7 16 780.808 780.808 0 0 0 10 43c3.065 7.296 7.898 13.129 14.5 17.5a94.853 94.853 0 0 1 12 6.5c9.619-5.008 16.619-2.508 21 7.5a2611.397 2611.397 0 0 0 91 42c2.413.484 4.746.15 7-1a4542.21 4542.21 0 0 1 134-64.5 3.647 3.647 0 0 0-1-1.5 133.602 133.602 0 0 1-18-2 214.088 214.088 0 0 1-19-7.5 73.594 73.594 0 0 1 7-18 170.291 170.291 0 0 0 28 11.5c10.061.895 20.061.562 30-1a64.231 64.231 0 0 1 10-9c3.106-.844 5.939-.344 8.5 1.5 8.464-5.41 10.464-12.743 6-22-2.646-4.24-6.479-6.24-11.5-6-12.062.785-16.896 7.118-14.5 19 1.489.924 1.656 1.924.5 3-17.926-8.36-23.092-21.693-15.5-40 16.225-20.378 35.725-24.212 58.5-11.5 10.195 8.383 15.195 19.216 15 32.5a242.396 242.396 0 0 1 29-29.5c15.129-7.755 31.129-9.755 48-6a208.275 208.275 0 0 0 19 3c2.28.233 4.28 1.066 6 2.5a796.7 796.7 0 0 1-25.5 43c-7.996 9.082-17.829 15.249-29.5 18.5-9.699.089-19.366.255-29 .5 18.875 16.587 21.709 35.587 8.5 57-12.957 14.114-28.457 17.947-46.5 11.5-10.38-6.933-13.88-16.433-10.5-28.5a6.978 6.978 0 0 0 3.5 2.5c16.635 3.687 24.135-2.813 22.5-19.5-5.352-6.421-12.185-8.755-20.5-7 .036 12.793-6.13 17.459-18.5 14-10.084 6.813-16.75 16.146-20 28a121.359 121.359 0 0 0-1.5 20c-8.007-.593-16.007-1.26-24-2 1.093-12.779 5.259-24.446 12.5-35 .749-1.135.583-2.135-.5-3a9545.178 9545.178 0 0 1-117 58c-.886.825-1.219 1.825-1 3a56494.516 56494.516 0 0 1 298 134.5c6.93 9.823 4.596 16.823-7 21A19343.667 19343.667 0 0 1 395 248.5 105368.24 105368.24 0 0 0 115.5 385c-12.972 3.029-18.139-2.138-15.5-15.5l3.5-3.5c88.062-42.365 176.062-84.699 264-127 .837-1.011 1.17-2.178 1-3.5a2856.347 2856.347 0 0 1-11-3.5 874.217 874.217 0 0 0-60.5-27.5 140.828 140.828 0 0 0-10.5 4c-6.94-3.107-11.606-8.273-14-15.5-28.618-9.96-43.451-30.127-44.5-60.5-4.047-14.597-11.547-27.097-22.5-37.5-11.557-7.596-24.224-10.262-38-8-17.831 3.495-29.331 13.995-34.5 31.5-3.67 16.64.496 30.807 12.5 42.5a182.562 182.562 0 0 0 22 13c9.434 7.205 14.101 16.872 14 29a65.81 65.81 0 0 0-1.5 8.5c-2.385-5.383-5.885-9.883-10.5-13.5a158.874 158.874 0 0 0-24-8c-18.985-7.454-31.485-20.954-37.5-40.5-6.108-33.596 4.725-60.096 32.5-79.5 12.005-6.33 24.671-10.163 38-11.5z"/><path style="opacity:1" fill="#c3b2a3" d="M174.5 61.5c27.065-.384 48.565 10.283 64.5 32l5 13a1465.593 1465.593 0 0 1 7 37c5.296 15.629 15.63 26.295 31 32-1.199 4.422-3.033 8.755-5.5 13-20.528-3.675-34.695-15.342-42.5-35a85.604 85.604 0 0 1-4-23c-4.075-16.384-12.575-29.884-25.5-40.5-23.128-12.041-44.461-9.708-64 7-22.032 35.489-14.032 61.822 24 79 9.819 6.124 14.319 14.957 13.5 26.5a57.217 57.217 0 0 0-8.5-9.5 495.855 495.855 0 0 1-32-11c-23.74-15.516-32.906-37.349-27.5-65.5 10.054-31.896 31.554-50.229 64.5-55zM574.5 68.5c21.42-1.718 35.254 7.615 41.5 28a49.226 49.226 0 0 1 0 14 113.367 113.367 0 0 1-9 18 125.607 125.607 0 0 1-21.5 10 12.93 12.93 0 0 1 .5-5c8.897-6.003 11.23-14.003 7-24-5.32-9.069-13.153-12.235-23.5-9.5-7.36 3.54-11.693 9.374-13 17.5-12.454-9.787-14.287-21.453-5.5-35 7.016-6.212 14.849-10.88 23.5-14z"/><path style="opacity:1" fill="#c4b2a4" d="M668.5 72.5a203.263 203.263 0 0 1 40 3c10.859-1.516 12.026 1.817 3.5 10a417.305 417.305 0 0 1-17 30L682.5 126a52.949 52.949 0 0 1-15 5c-18.668.296-37.334.129-56-.5a229.964 229.964 0 0 1 24.5-38c8.758-10.3 19.591-16.967 32.5-20z"/><path style="opacity:1" fill="#c1b0a1" d="M505.5 131.5a132.125 132.125 0 0 1 14 6.5 275.458 275.458 0 0 0 18 5 139.91 139.91 0 0 0 27-1 10.94 10.94 0 0 1 3 4.5 65.012 65.012 0 0 1-15 4.5 134.206 134.206 0 0 1-36-2 83.921 83.921 0 0 1-13.5-6.5c.2-3.76 1.033-7.426 2.5-11z"/><path style="opacity:1" fill="#c1b0a2" d="M574.5 133.5c2.292-.256 4.459.077 6.5 1a247.871 247.871 0 0 1 9 19 20.683 20.683 0 0 1-.5 9c-2.501 1.326-5.168 1.826-8 1.5-7.322-7.463-11.156-16.296-11.5-26.5 1.397-1.57 2.897-2.904 4.5-4z"/><path style="opacity:1" fill="#c3b2a4" d="M608.5 134.5c19.885-.942 33.718 7.725 41.5 26 3.289 20.44-4.544 34.94-23.5 43.5-16.649 5.752-28.149.586-34.5-15.5-.82-2.228-.487-4.228 1-6 12.31 4.84 21.643 1.507 28-10 2.296-11.575-2.204-19.075-13.5-22.5l-16-1c-2.982-2.191-3.315-4.524-1-7 5.828-3.212 11.828-5.712 18-7.5z"/><path style="opacity:1" fill="#c3b1a3" d="M561.5 151.5c2.357-.163 4.69.003 7 .5 1.074.739 1.741 1.739 2 3a114.999 114.999 0 0 0-16 12 1343431.37 1343431.37 0 0 0-118 58 389.819 389.819 0 0 1-17.5 7.5c-5.559-1.361-10.726-3.694-15.5-7a7.248 7.248 0 0 1 2-2.5 9231.845 9231.845 0 0 0 115-56 522.246 522.246 0 0 1 41-15.5z"/><path style="opacity:1" fill="#c1b0a2" d="M570.5 158.5c1.75 1.242 3.417 2.742 5 4.5-16.284 11.566-23.951 27.233-23 47-5.49 1.614-11.157 1.947-17 1 .366-9.776 3.2-18.943 8.5-27.5a272.332 272.332 0 0 1 9.5-12.5c2.974-2.638 5.974-5.305 9-8 3.133-.86 5.8-2.36 8-4.5z"/><path style="opacity:1" fill="#c3b1a3" d="M288.5 174.5a21.341 21.341 0 0 1 9 1.5c2.094 1.255 3.094 3.088 3 5.5a121.22 121.22 0 0 1-8.5 19c-6.587 2.763-10.753.763-12.5-6 2.156-7.122 5.156-13.789 9-20zM303.5 186.5c2.427.023 4.76.523 7 1.5A76774.202 76774.202 0 0 0 723 374.5c.379 4.703-.787 9.037-3.5 13-3.267.39-6.601-.11-10-1.5a109914.582 109914.582 0 0 1-403-181c-3.37-1.346-6.37-3.179-9-5.5a82.152 82.152 0 0 0 6-13zM371.5 239.5a95.057 95.057 0 0 1 18 6c.886.825 1.219 1.825 1 3a91.516 91.516 0 0 0-17 6.5 47620.784 47620.784 0 0 1-261 127c-7.28 1.719-10.447-1.115-9.5-8.5a71.453 71.453 0 0 1 6.5-6.5 15828.795 15828.795 0 0 0 262-127.5z"/><path style="opacity:1" fill="#c5b3a5" d="M106.5 403.5c27.551-2.043 53.885 2.457 79 13.5a261.643 261.643 0 0 0 43 22c34.659 10.127 68.659 8.127 102-6a119.21 119.21 0 0 0 22-14c29.073-14.088 59.406-17.421 91-10 19.492 6.167 37.825 14.833 55 26 48.785 19.363 95.118 14.696 139-14 53.021-22.38 102.021-15.88 147 19.5a1944.393 1944.393 0 0 1 .5 108 3.647 3.647 0 0 1-1.5 1c-30.727-26.325-66.394-37.158-107-32.5a157.72 157.72 0 0 0-24 5 1741.085 1741.085 0 0 0-42 21c-35.796 14.479-71.796 15.146-108 2a933.57 933.57 0 0 0-52-25c-32.25-8.705-63.917-7.038-95 5a510.42 510.42 0 0 1-47 23c-35.235 10.431-69.568 8.098-103-7-41.106-28.924-85.439-34.924-133-18-13.48 5.338-25.813 12.505-37 21.5a3276.084 3276.084 0 0 1-2-42 2536.33 2536.33 0 0 0 1.5-65c20.212-19.024 44.046-30.357 71.5-34z"/><path style="opacity:1" fill="#dd0029" d="M93.5 537.5c-.418-.722-1.084-1.222-2-1.5a60.93 60.93 0 0 0-11-.5c-6.675.166-13.342 0-20-.5 25.23-12.199 51.897-16.532 80-13a211.25 211.25 0 0 1 28 6 727.44 727.44 0 0 1 46 22c39.812 14.049 78.812 12.049 117-6 40.391-25.622 83.058-30.288 128-14a548.94 548.94 0 0 1 40 19c32.131 12.009 64.798 13.676 98 5a399.734 399.734 0 0 0 54-25c48.491-14.451 92.325-5.951 131.5 25.5-3.299 59.229-20.299 114.229-51 165l-38 52a314.082 314.082 0 0 1-37 36c-26.143-28.486-58.643-44.32-97.5-47.5-50.663 6.783-93.497-8.051-128.5-44.5a172.26 172.26 0 0 0-13-18c-14.385-14.728-30.218-27.561-47.5-38.5-26.178-12.272-53.678-16.439-82.5-12.5-39.388-.532-72.388-15.198-99-44l-20-26c-20.919-21.044-46.086-34.044-75.5-39z"/><path style="opacity:1" fill="#a41228" d="M80.5 535.5a60.93 60.93 0 0 1 11 .5c.916.278 1.582.778 2 1.5-4.51-.384-8.844-1.051-13-2z"/><path style="opacity:1" fill="#c4b3a4" d="M55.5 540.5c54.966-3.599 97.466 17.401 127.5 63 35.422 38.696 79.089 54.363 131 47 47.799 3.882 84.466 25.882 110 66 25.039 28.438 56.539 44.604 94.5 48.5 39.004-4.478 75.004 3.522 108 24a166.548 166.548 0 0 1 25 23.5 171.16 171.16 0 0 1-37.5 28c-24.79-21.391-53.79-33.058-87-35-48.516 6.162-89.183-8.838-122-45-11.446-24.446-29.28-42.613-53.5-54.5-20.243-9.651-41.576-14.485-64-14.5-48.991 7.132-90.158-7.535-123.5-44a124.596 124.596 0 0 1-15-24c-30.963-30.879-68.463-45.212-112.5-43a159.47 159.47 0 0 1-1.5-29 94.084 94.084 0 0 1 13-10c2.726 1.191 5.226.858 7.5-1z"/><path style="opacity:1" fill="#ab0826" d="M57.5 586.5c-6.522-.323-12.855.01-19 1-.543-.06-.876-.393-1-1 6.822-1.318 13.489-1.318 20 0z"/><path style="opacity:1" fill="#dd0029" d="M57.5 586.5c34.123 2.148 62.956 15.481 86.5 40 32.744 55.7 81.411 79.033 146 70 39.027 1.393 71.361 16.727 97 46 26.782 45.412 66.782 69.079 120 71 37.957-4.554 71.79 5.112 101.5 29 1.211.774 1.211 1.607 0 2.5-44.926 25.896-92.926 43.23-144 52-118.342 14.776-222.342-17.224-312-96C96.958 748.425 60.125 684.925 42 610.5a166.018 166.018 0 0 1-3.5-23c6.145-.99 12.478-1.323 19-1z"/></svg>

<?xml version="1.0" encoding="UTF-8"?>
<!DOCTYPE svg PUBLIC "-//W3C//DTD SVG 1.1//EN" "http://www.w3.org/Graphics/SVG/1.1/DTD/svg11.dtd">
<svg xmlns="http://www.w3.org/2000/svg" version="1.1" width="827px" height="944px" style="shape-rendering:geometricPrecision; text-rendering:geometricPrecision; image-rendering:optimizeQuality; fill-rule:evenodd; clip-rule:evenodd" xmlns:xlink="http://www.w3.org/1999/xlink">
<g><path style="opacity:1" fill="#fefefe" d="M -0.5,-0.5 C 275.167,-0.5 550.833,-0.5 826.5,-0.5C 826.5,314.167 826.5,628.833 826.5,943.5C 550.833,943.5 275.167,943.5 -0.5,943.5C -0.5,628.833 -0.5,314.167 -0.5,-0.5 Z"/></g>
<g><path style="opacity:1" fill="#070505" d="M 17.5,15.5 C 280.163,17.4934 542.829,18.4934 805.5,18.5C 806.512,193.832 806.679,369.166 806,544.5C 796.595,682.299 734.428,788.799 619.5,864C 523.55,920.934 420.883,937.1 311.5,912.5C 181.439,876.058 89.9393,795.725 37,671.5C 29.2866,650.012 22.9533,628.012 18,605.5C 16.8153,592.431 15.1486,579.431 13,566.5C 12.7112,550.325 12.2112,534.159 11.5,518C 11.387,351.135 12.2203,184.301 14,17.5C 15.3024,16.9152 16.469,16.2485 17.5,15.5 Z"/></g>
<g><path style="opacity:1" fill="#2c4f24" d="M 36.5,36.5 C 285.507,36.7887 534.507,38.1221 783.5,40.5C 784.292,170.36 785.292,300.193 786.5,430C 785.873,432.135 785.373,434.302 785,436.5C 753.729,408.881 717.229,398.047 675.5,404C 664.191,405.91 653.191,408.91 642.5,413C 627.623,420.605 612.623,427.939 597.5,435C 554.731,449.028 515.064,443.028 478.5,417C 445.445,399.63 410.778,395.63 374.5,405C 367.979,406.95 361.646,409.283 355.5,412C 296.865,450.455 238.865,449.455 181.5,409C 128.484,387.298 79.8177,394.465 35.5,430.5C 34.2432,299.162 34.5765,167.829 36.5,36.5 Z"/></g>
<g><path style="opacity:1" fill="#0d0d0c" d="M 178.5,58.5 C 203.817,59.6386 224.317,69.9719 240,89.5C 242.777,94.6196 245.11,99.953 247,105.5C 249.928,119.929 253.262,134.262 257,148.5C 260.065,155.796 264.898,161.629 271.5,166C 275.672,167.887 279.672,170.054 283.5,172.5C 293.119,167.492 300.119,169.992 304.5,180C 334.545,194.573 364.878,208.573 395.5,222C 397.913,222.484 400.246,222.15 402.5,221C 446.895,198.73 491.562,177.23 536.5,156.5C 536.291,155.914 535.957,155.414 535.5,155C 529.449,154.74 523.449,154.073 517.5,153C 510.978,150.775 504.645,148.275 498.5,145.5C 500.057,139.156 502.39,133.156 505.5,127.5C 514.501,132.168 523.835,136.002 533.5,139C 543.561,139.895 553.561,139.562 563.5,138C 566.509,134.658 569.843,131.658 573.5,129C 576.606,128.156 579.439,128.656 582,130.5C 590.464,125.09 592.464,117.757 588,108.5C 585.354,104.26 581.521,102.26 576.5,102.5C 564.438,103.285 559.604,109.618 562,121.5C 563.489,122.424 563.656,123.424 562.5,124.5C 544.574,116.14 539.408,102.807 547,84.5C 563.225,64.1217 582.725,60.2884 605.5,73C 615.695,81.3829 620.695,92.2162 620.5,105.5C 629.316,94.8504 638.983,85.017 649.5,76C 664.629,68.2451 680.629,66.2451 697.5,70C 703.772,71.2902 710.105,72.2902 716.5,73C 718.78,73.2326 720.78,74.066 722.5,75.5C 714.469,90.0678 705.969,104.401 697,118.5C 689.004,127.582 679.171,133.749 667.5,137C 657.801,137.089 648.134,137.255 638.5,137.5C 657.375,154.087 660.209,173.087 647,194.5C 634.043,208.614 618.543,212.447 600.5,206C 590.12,199.067 586.62,189.567 590,177.5C 590.903,178.701 592.069,179.535 593.5,180C 610.135,183.687 617.635,177.187 616,160.5C 610.648,154.079 603.815,151.745 595.5,153.5C 595.536,166.293 589.37,170.959 577,167.5C 566.916,174.313 560.25,183.646 557,195.5C 555.948,202.128 555.448,208.794 555.5,215.5C 547.493,214.907 539.493,214.24 531.5,213.5C 532.593,200.721 536.759,189.054 544,178.5C 544.749,177.365 544.583,176.365 543.5,175.5C 504.654,195.089 465.654,214.423 426.5,233.5C 425.614,234.325 425.281,235.325 425.5,236.5C 524.767,280.957 624.1,325.791 723.5,371C 730.43,380.823 728.096,387.823 716.5,392C 609.144,345.252 501.977,297.418 395,248.5C 301.968,293.764 208.801,339.264 115.5,385C 102.528,388.029 97.3612,382.862 100,369.5C 101.167,368.333 102.333,367.167 103.5,366C 191.562,323.635 279.562,281.301 367.5,239C 368.337,237.989 368.67,236.822 368.5,235.5C 364.855,234.348 361.188,233.182 357.5,232C 337.658,222.056 317.492,212.889 297,204.5C 293.445,205.694 289.945,207.028 286.5,208.5C 279.56,205.393 274.894,200.227 272.5,193C 243.882,183.04 229.049,162.873 228,132.5C 223.953,117.903 216.453,105.403 205.5,95C 193.943,87.4043 181.276,84.7376 167.5,87C 149.669,90.4948 138.169,100.995 133,118.5C 129.33,135.14 133.496,149.307 145.5,161C 152.536,165.851 159.869,170.184 167.5,174C 176.934,181.205 181.601,190.872 181.5,203C 180.815,205.795 180.315,208.628 180,211.5C 177.615,206.117 174.115,201.617 169.5,198C 161.732,194.702 153.732,192.035 145.5,190C 126.515,182.546 114.015,169.046 108,149.5C 101.892,115.904 112.725,89.4043 140.5,70C 152.505,63.6699 165.171,59.8366 178.5,58.5 Z"/></g>
<g><path style="opacity:1" fill="#c3b2a3" d="M 174.5,61.5 C 201.565,61.1162 223.065,71.7828 239,93.5C 240.667,97.8333 242.333,102.167 244,106.5C 246.491,118.798 248.824,131.132 251,143.5C 256.296,159.129 266.63,169.795 282,175.5C 280.801,179.922 278.967,184.255 276.5,188.5C 255.972,184.825 241.805,173.158 234,153.5C 231.616,146.015 230.283,138.348 230,130.5C 225.925,114.116 217.425,100.616 204.5,90C 181.372,77.959 160.039,80.2923 140.5,97C 118.468,132.489 126.468,158.822 164.5,176C 174.319,182.124 178.819,190.957 178,202.5C 175.537,199.035 172.704,195.869 169.5,193C 158.746,189.71 148.079,186.044 137.5,182C 113.76,166.484 104.594,144.651 110,116.5C 120.054,84.6044 141.554,66.2711 174.5,61.5 Z"/></g>
<g><path style="opacity:1" fill="#c3b2a3" d="M 574.5,68.5 C 595.92,66.7816 609.754,76.115 616,96.5C 616.667,101.167 616.667,105.833 616,110.5C 613.512,116.81 610.512,122.81 607,128.5C 600.116,132.526 592.95,135.86 585.5,138.5C 585.34,136.801 585.506,135.134 586,133.5C 594.897,127.497 597.23,119.497 593,109.5C 587.68,100.431 579.847,97.2647 569.5,100C 562.14,103.54 557.807,109.374 556.5,117.5C 544.046,107.713 542.213,96.0466 551,82.5C 558.016,76.2876 565.849,71.6209 574.5,68.5 Z"/></g>
<g><path style="opacity:1" fill="#c4b2a4" d="M 668.5,72.5 C 681.935,72.1814 695.269,73.1814 708.5,75.5C 719.359,73.9838 720.526,77.3172 712,85.5C 706.734,95.7567 701.067,105.757 695,115.5C 690.833,119 686.667,122.5 682.5,126C 677.754,128.416 672.754,130.083 667.5,131C 648.832,131.296 630.166,131.129 611.5,130.5C 618.382,117.085 626.549,104.418 636,92.5C 644.758,82.1993 655.591,75.5327 668.5,72.5 Z"/></g>
<g><path style="opacity:1" fill="#c1b0a1" d="M 505.5,131.5 C 510.254,133.376 514.921,135.542 519.5,138C 525.447,139.871 531.447,141.538 537.5,143C 546.574,143.536 555.574,143.203 564.5,142C 565.872,143.242 566.872,144.742 567.5,146.5C 562.716,148.594 557.716,150.094 552.5,151C 540.405,151.952 528.405,151.286 516.5,149C 511.802,147.234 507.302,145.067 503,142.5C 503.2,138.74 504.033,135.074 505.5,131.5 Z"/></g>
<g><path style="opacity:1" fill="#c1b0a2" d="M 574.5,133.5 C 576.792,133.244 578.959,133.577 581,134.5C 584.257,140.681 587.257,147.015 590,153.5C 590.495,156.531 590.329,159.531 589.5,162.5C 586.999,163.826 584.332,164.326 581.5,164C 574.178,156.537 570.344,147.704 570,137.5C 571.397,135.93 572.897,134.596 574.5,133.5 Z"/></g>
<g><path style="opacity:1" fill="#c3b2a4" d="M 608.5,134.5 C 628.385,133.558 642.218,142.225 650,160.5C 653.289,180.94 645.456,195.44 626.5,204C 609.851,209.752 598.351,204.586 592,188.5C 591.18,186.272 591.513,184.272 593,182.5C 605.31,187.34 614.643,184.007 621,172.5C 623.296,160.925 618.796,153.425 607.5,150C 602.167,149.667 596.833,149.333 591.5,149C 588.518,146.809 588.185,144.476 590.5,142C 596.328,138.788 602.328,136.288 608.5,134.5 Z"/></g>
<g><path style="opacity:1" fill="#c3b1a3" d="M 561.5,151.5 C 563.857,151.337 566.19,151.503 568.5,152C 569.574,152.739 570.241,153.739 570.5,155C 564.875,158.493 559.541,162.493 554.5,167C 515.301,186.265 475.968,205.598 436.5,225C 430.682,227.662 424.849,230.162 419,232.5C 413.441,231.139 408.274,228.806 403.5,225.5C 403.977,224.522 404.643,223.689 405.5,223C 444.08,204.542 482.413,185.875 520.5,167C 534.015,161.235 547.682,156.068 561.5,151.5 Z"/></g>
<g><path style="opacity:1" fill="#c1b0a2" d="M 570.5,158.5 C 572.25,159.742 573.917,161.242 575.5,163C 559.216,174.566 551.549,190.233 552.5,210C 547.01,211.614 541.343,211.947 535.5,211C 535.866,201.224 538.7,192.057 544,183.5C 547.045,179.244 550.212,175.077 553.5,171C 556.474,168.362 559.474,165.695 562.5,163C 565.633,162.14 568.3,160.64 570.5,158.5 Z"/></g>
<g><path style="opacity:1" fill="#c3b1a3" d="M 288.5,174.5 C 291.607,174.351 294.607,174.851 297.5,176C 299.594,177.255 300.594,179.088 300.5,181.5C 298.21,188.08 295.377,194.413 292,200.5C 285.413,203.263 281.247,201.263 279.5,194.5C 281.656,187.378 284.656,180.711 288.5,174.5 Z"/></g>
<g><path style="opacity:1" fill="#c3b1a3" d="M 303.5,186.5 C 305.927,186.523 308.26,187.023 310.5,188C 447.786,250.558 585.286,312.725 723,374.5C 723.379,379.203 722.213,383.537 719.5,387.5C 716.233,387.89 712.899,387.39 709.5,386C 575.018,325.924 440.684,265.591 306.5,205C 303.13,203.654 300.13,201.821 297.5,199.5C 299.892,195.312 301.892,190.978 303.5,186.5 Z"/></g>
<g><path style="opacity:1" fill="#c3b1a3" d="M 371.5,239.5 C 377.65,240.883 383.65,242.883 389.5,245.5C 390.386,246.325 390.719,247.325 390.5,248.5C 384.644,250.092 378.977,252.258 373.5,255C 286.767,297.531 199.767,339.865 112.5,382C 105.22,383.719 102.053,380.885 103,373.5C 104.984,371.237 107.151,369.07 109.5,367C 197.23,325.301 284.564,282.801 371.5,239.5 Z"/></g>
<g><path style="opacity:1" fill="#c5b3a5" d="M 106.5,403.5 C 134.051,401.457 160.385,405.957 185.5,417C 199.219,425.692 213.552,433.025 228.5,439C 263.159,449.127 297.159,447.127 330.5,433C 338.369,429.123 345.702,424.456 352.5,419C 381.573,404.912 411.906,401.579 443.5,409C 462.992,415.167 481.325,423.833 498.5,435C 547.285,454.363 593.618,449.696 637.5,421C 690.521,398.62 739.521,405.12 784.5,440.5C 785.667,476.495 785.833,512.495 785,548.5C 784.586,548.957 784.086,549.291 783.5,549.5C 752.773,523.175 717.106,512.342 676.5,517C 668.367,518.045 660.367,519.711 652.5,522C 638.412,528.808 624.412,535.808 610.5,543C 574.704,557.479 538.704,558.146 502.5,545C 485.487,536.161 468.154,527.828 450.5,520C 418.25,511.295 386.583,512.962 355.5,525C 340.233,533.467 324.566,541.134 308.5,548C 273.265,558.431 238.932,556.098 205.5,541C 164.394,512.076 120.061,506.076 72.5,523C 59.0209,528.338 46.6875,535.505 35.5,544.5C 34.7433,530.501 34.0767,516.501 33.5,502.5C 34.2776,480.845 34.7776,459.178 35,437.5C 55.2123,418.476 79.0457,407.143 106.5,403.5 Z"/></g>
<g><path style="opacity:1" fill="#dd0029" d="M 93.5,537.5 C 93.0825,536.778 92.4158,536.278 91.5,536C 87.8484,535.501 84.1817,535.335 80.5,535.5C 73.825,535.666 67.1583,535.5 60.5,535C 85.73,522.801 112.397,518.468 140.5,522C 149.966,523.366 159.299,525.366 168.5,528C 184.097,534.799 199.43,542.132 214.5,550C 254.312,564.049 293.312,562.049 331.5,544C 371.891,518.378 414.558,513.712 459.5,530C 473.107,535.804 486.44,542.137 499.5,549C 531.631,561.009 564.298,562.676 597.5,554C 616.156,546.992 634.156,538.659 651.5,529C 699.991,514.549 743.825,523.049 783,554.5C 779.701,613.729 762.701,668.729 732,719.5C 719.333,736.833 706.667,754.167 694,771.5C 682.594,784.574 670.261,796.574 657,807.5C 630.857,779.014 598.357,763.18 559.5,760C 508.837,766.783 466.003,751.949 431,715.5C 427.054,709.221 422.721,703.221 418,697.5C 403.615,682.772 387.782,669.939 370.5,659C 344.322,646.728 316.822,642.561 288,646.5C 248.612,645.968 215.612,631.302 189,602.5C 182.333,593.833 175.667,585.167 169,576.5C 148.081,555.456 122.914,542.456 93.5,537.5 Z"/></g>
<g><path style="opacity:1" fill="#a41228" d="M 80.5,535.5 C 84.1817,535.335 87.8484,535.501 91.5,536C 92.4158,536.278 93.0825,536.778 93.5,537.5C 88.9898,537.116 84.6565,536.449 80.5,535.5 Z"/></g>
<g><path style="opacity:1" fill="#c4b3a4" d="M 55.5,540.5 C 110.466,536.901 152.966,557.901 183,603.5C 218.422,642.196 262.089,657.863 314,650.5C 361.799,654.382 398.466,676.382 424,716.5C 449.039,744.938 480.539,761.104 518.5,765C 557.504,760.522 593.504,768.522 626.5,789C 635.614,795.946 643.947,803.779 651.5,812.5C 640.284,823.549 627.784,832.882 614,840.5C 589.21,819.109 560.21,807.442 527,805.5C 478.484,811.662 437.817,796.662 405,760.5C 393.554,736.054 375.72,717.887 351.5,706C 331.257,696.349 309.924,691.515 287.5,691.5C 238.509,698.632 197.342,683.965 164,647.5C 158.078,640.053 153.078,632.053 149,623.5C 118.037,592.621 80.5366,578.288 36.5,580.5C 35.1179,570.876 34.6179,561.21 35,551.5C 39.0482,547.784 43.3815,544.45 48,541.5C 50.7259,542.691 53.2259,542.358 55.5,540.5 Z"/></g>
<g><path style="opacity:1" fill="#ab0826" d="M 57.5,586.5 C 50.9779,586.177 44.6446,586.51 38.5,587.5C 37.9569,587.44 37.6236,587.107 37.5,586.5C 44.3222,585.182 50.9888,585.182 57.5,586.5 Z"/></g>
<g><path style="opacity:1" fill="#dd0029" d="M 57.5,586.5 C 91.6226,588.648 120.456,601.981 144,626.5C 176.744,682.2 225.411,705.533 290,696.5C 329.027,697.893 361.361,713.227 387,742.5C 413.782,787.912 453.782,811.579 507,813.5C 544.957,808.946 578.79,818.612 608.5,842.5C 609.711,843.274 609.711,844.107 608.5,845C 563.574,870.896 515.574,888.23 464.5,897C 346.158,911.776 242.158,879.776 152.5,801C 96.9581,748.425 60.1248,684.925 42,610.5C 40.2915,602.889 39.1248,595.222 38.5,587.5C 44.6446,586.51 50.9779,586.177 57.5,586.5 Z"/></g>
</svg>
